X: 40943
T: Trip To Cape Spear
R: polka
M: 2/4
K: Gmajor
|:GB EF|G2 d2|cA AG/A/|BG ED|
GB EF|G2 d2|cA AG/A/|1 BG G2:|2 BG G>A||
|:Bd dB|cd ef|ge dB|cA A2|
[1 Bd dB|cd ef|ge dc|BG G>A:|
[2 GB Ac|Bd ce|dg f/e/d/c/|BG G2||

